X:446
T: Rekrutenlied  (161), S. 350
N: T0334V
O: Luxemburg
S: Singendes Volk, Esch-Alzette 1937, posth.]
N: Esch-Alzette, hhh Dominik Mller, 7.6.1915
R: historische, Kriegs- und Soldatenlieder, Abschiedslied, Trauer]
M: 4/4
L: 1/16
K: G
 | G4G2G2B4G2B2 | d4d4d4
e4 | c2c2c2c2c4c2e2 | d4B4B4
e4 | d3AA2A2A4B2c2 | d3GG2G2G4
G2G2 | c2c2c2c2c2B2A2G2 | d4d2d2d2c2
B2A2 | e3ee2e2e4e2e2 | d4c4B4e4 | d2c2c2c2B4z4

@@@ Tune index: 8500
